X: 923
T: Gül Dalında Öten Bülbülün Olsam
C: Nev´eser Kökdeş
O: Turkey
F: http://compmusic.upf.edu/node/140
N: hicazkar--sarki--duyek--gul_dalinda--neveser_kokdes
N: makam= hicazkar
N: form= sarki
N: usul= duyek = 8/4
M: 8/4
L: 1/16
K: C _1/4B _7/8e _7/8A ^f
Q: 1/4=144
%%MIDI tuningsystem comma53
GB dB c2 d2 GB dB c2 d2  | ed eg fe dc d8  | 
w:  ARANAĞME  |   | 
gf eg f4 ed ce d4  | cB cd BA AG G8  | \
w:   |   | 
GB dB c2 d2 GB dB c2 d2  | 
w:  ARANAĞME  | 
ed eg fe dc d8  | gf eg f4 ed ce d4  | \
w:   |   | 
cB cd BA AG G8  | 
w:   | 
f2 g4 g2 ag fa g4  | ag fg fe dc d8  | \
w:  Gül  da lın da  *  ö *  ten   |  bül *  bü *  lün  *  ol *  sam   | 
f2 g4 g2 ag fa g4  | 
w:  Gül  da lın da  *  ö *  ten   | 
ag fg fe dc d8  | d2 e4 e2 ed eg fe dc  | \
w:  bül *  bü *  lün  *  ol *  sam   |  Öt sem  ya nık  *  ya *  nık   | 
B2 Bc BA AG GA Bc d4  | 
w:  gön lü *  ne  *  dol *  sam   | 
d2 e4 e2 ed eg fe dc  | B2 Bc BA AG G4 g4  | \
w:  Öt sem  ya nık  *  ya *  nık   |  gön lü *  ne  *  dol *  sam  SAZ  | 
f2 g4 g2 ag fa g4  | 
w:  Aş kı nı  di *  le *  sem   | 
ag fg fe dc d8  | f2 g4 g2 ag fa g4  | \
w:  kal *  bi *  mi  *  sun *  sam   |  Aş kı nı  di *  le *  sem   | 
ag fg fe dc d8  | 
w:  kal *  bi *  mi  *  sun *  sam   | 
d2 e4 e2 ed eg fe dc  | B2 Bc BA AG GA Bc d4  | 
w:  Ne  o lur  uğ *  ru *  na   |  sa ra *  rıp  *  sol *  sam   | 
d2 e4 e2 ed eg fe dc  | B2 Bc BA AG G8  | \
w:  Ne  o lur  uğ *  ru *  na   |  sa ra *  rıp  *  sol *  sam   | 
FG AF G4 ed ce d4  | 
w:  Ba *  ha *  rım  çi *  çe *  ğim   | 
FG AF G4 ed ce d4  | f3f f2 f2 ga gf ed c2  | 
w:  gü *  ze *  lim  sev *  *  gi lim   |  Sar  be ni  kol la *  rın *  da   | 
B2 cd BA AG G8  | FG AF G4 ed ce d4  | \
w:  ca nım  *  di *  ye *  yim   |  Ba *  ha *  rım  çi *  çe *  ğim   | 
FG AF G4 ed ce d4  | 
w:  gü *  ze *  lim  sev *  *  gi lim   | 
f3f f2 f2 ga gf ed c2  | B2 cd BA AG G8  | \
w:  Sar  be ni  kol la *  rın *  da   |  ca nım  *  di *  ye *  yim   | 
GB dB c2 d2 GB dB c2 d2  | 
w:  ARANAĞME  | 
ed eg fe dc d8  | gf eg f4 ed ce d4  | \
w:   |   | 
cB cd BA AG G8  | 
w:   | 
GB dB c2 d2 GB dB c2 d2  | ed eg fe dc d8  | 
w:  ARANAĞME  |   | 
gf eg f4 ed ce d4  | cB cd BA AG G8  | \
w:   |   | 
f2 g4 g2 ag fa g4  | 
w:  Gül  da lın da  *  ö *  ten   | 
ag fg fe dc d8  | f2 g4 g2 ag fa g4  | \
w:  bül *  bü *  lün  *  ol *  sam   |  Gül  da lın da  *  ö *  ten   | 
ag fg fe dc d8  | 
w:  bül *  bü *  lün  *  ol *  sam   | 
d2 e4 e2 ed eg fe dc  | B2 Bc BA AG GA Bc d4  | 
w:  Öt sem  ya nık  *  ya *  nık   |  gön lü *  ne  *  dol *  sam   | 
d2 e4 e2 ed eg fe dc  | B2 Bc BA AG G4 g4  | \
w:  Öt sem  ya nık  *  ya *  nık   |  gön lü *  ne  *  dol *  sam  SAZ  | 
f2 g4 g2 ag fa g4  | 
w:  Aş kı nı  di *  le *  sem   | 
ag fg fe dc d8  | f2 g4 g2 ag fa g4  | \
w:  kal *  bi *  mi  *  sun *  sam   |  Aş kı nı  di *  le *  sem   | 
ag fg fe dc d8  | 
w:  kal *  bi *  mi  *  sun *  sam   | 
d2 e4 e2 ed eg fe dc  | B2 Bc BA AG GA Bc d4  | 
w:  Ne  o lur  uğ *  ru *  na   |  sa ra *  rıp  *  sol *  sam   | 
d2 e4 e2 ed eg fe dc  | B2 Bc BA AG G8  | \
w:  Ne  o lur  uğ *  ru *  na   |  sa ra *  rıp  *  sol *  sam   | 
FG AF G4 ed ce d4  | 
w:  Ba *  ha *  rım  çi *  çe *  ğim   | 
FG AF G4 ed ce d4  | f3f f2 f2 ga gf ed c2  | 
w:  gü *  ze *  lim  sev *  *  gi lim   |  Sar  be ni  kol la *  rın *  da   | 
B2 cd BA AG G8  | FG AF G4 ed ce d4  | \
w:  ca nım  *  di *  ye *  yim   |  Ba *  ha *  rım  çi *  çe *  ğim   | 
FG AF G4 ed ce d4  | 
w:  gü *  ze *  lim  sev *  *  gi lim   | 
f3f f2 f2 ga gf ed c2  | B2 cd BA AG G8  | |


